packages/dnb-ui-lib/assets/icons/fund_in.svg

<svg width="16" height="16" viewBox="0 0 16 16" fill="none" xmlns="http://www.w3.org/2000/svg">
<path d="M1 15H1.93333M15 15H14.0667M6.6 7.06667C6.6 6.9429 6.64917 6.8242 6.73668 6.73668C6.8242 6.64917 6.9429 6.6 7.06667 6.6H8.93333C9.0571 6.6 9.1758 6.64917 9.26332 6.73668C9.35083 6.8242 9.4 6.9429 9.4 7.06667V15M15 3.8V1M15 1H12.2M15 1L11.8578 4.14222C11.6791 4.32096 11.4553 4.44797 11.2102 4.50976C10.9652 4.57155 10.7079 4.56581 10.4659 4.49316L6.9136 3.54364C6.6763 3.48031 6.42653 3.48049 6.18932 3.54416C5.95211 3.60783 5.73582 3.73275 5.56213 3.9064L1.93333 7.5352M1.93333 15H4.73333M1.93333 15V14.5333M4.73333 15H6.6M4.73333 15V14.5333M6.6 15H9.4M6.6 15V14.5333M9.4 15H11.2667M11.2667 15H14.0667M11.2667 15V7.68889C11.2667 7.56512 11.3158 7.44642 11.4033 7.35891C11.4909 7.27139 11.6096 7.22222 11.7333 7.22222H13.6C13.7238 7.22222 13.8425 7.27139 13.93 7.35891C14.0175 7.44642 14.0667 7.56512 14.0667 7.68889V15M1.15556 10.8H5.82222M4.26667 12.3556L5.82222 10.8M5.82222 10.8L4.26667 9.24444" stroke="black" stroke-width="1.5" stroke-linecap="round" stroke-linejoin="round"/>
</svg>

<svg width="16" height="16" viewBox="0 0 16 16" fill="none" xmlns="http://www.w3.org/2000/svg"><path d="M1 15h.933M15 15h-.933M6.6 7.067a.467.467 0 01.467-.467h1.866a.467.467 0 01.467.467V15M15 3.8V1m0 0h-2.8M15 1l-3.142 3.142a1.4 1.4 0 01-1.392.351l-3.552-.95a1.4 1.4 0 00-1.352.363l-3.629 3.63m0 7.464h2.8m-2.8 0v-.467m2.8.467H6.6m-1.867 0v-.467M6.6 15h2.8m-2.8 0v-.467M9.4 15h1.867m0 0h2.8m-2.8 0V7.689a.467.467 0 01.466-.467H13.6a.467.467 0 01.467.467V15M1.156 10.8h4.666m-1.555 1.556L5.822 10.8m0 0L4.267 9.244" stroke="#000" stroke-width="1.5" stroke-linecap="round" stroke-linejoin="round"/></svg>
